images_sukapura_svg/cmd/32/spelling.svg

<svg viewBox="0 0 32 32" xmlns="http://www.w3.org/2000/svg"><g fill="#69696e" stroke-width=".413587"><path d="m9.6888522 14.000335h-4.5559188l-.9531887 2.738398h-2.1244798l4.4428286-11.7613786h1.8336765l4.450906 11.7613786h-2.132557zm-3.98239-1.647885h3.4088612l-1.7044306-4.8790337z"/><path d="m21.603711 12.457462q0 2.035623-.912799 3.239226-.904722 1.203603-2.496062 1.203603-1.534796 0-2.39105-1.106669l-.09693.945111h-1.777136v-12.4076082h1.962923v4.5074515q.848176-1.0016559 2.286037-1.0016559 1.599418 0 2.512218 1.1874469.912799 1.1874467.912799 3.3200047zm-1.962923-.169635q0-1.421705-.500827-2.132558-.500828-.7108524-1.454017-.7108524-1.276304 0-1.793287 1.1147464v3.60273q.525061 1.138979 1.809443 1.138979.920877 0 1.421705-.686619.500828-.686619.516983-2.076012z"/><path d="m26.830093 15.333184q.735086 0 1.219758-.428127.484672-.428127.516984-1.058201h1.849832q-.03231.815865-.508906 1.526717-.476594.702775-1.292459 1.114746-.815865.411972-1.760976.411972-1.833676 0-2.908033-1.187447-1.074357-1.187447-1.074357-3.279615v-.201947q0-1.995234 1.066279-3.1907589 1.066279-1.2036027 2.908033-1.2036027 1.559029 0 2.536451.9127993.985501.9047215 1.033968 2.3829713h-1.849832q-.032312-.751241-.516984-1.2359137-.476594-.4846722-1.219758-.4846722-.953189 0-1.470173.6946969-.516984.686619-.525061 2.092168v.315037q0 1.421705.508905 2.12448.516984.694697 1.486329.694697z"/></g><path d="m30.091797 18.558594c-.164931-.0303-.34487-.03226-.525391.0039a.46440423.46440423 0 0 0 -.0039 0c-.359762.07602-.681249.269599-.916016.548828-.000589.000701-.0014.0013-.002.002l-7.01949 7.855428-2.287109-2.238281c-.642077-.627867-1.689903-.627751-2.332032 0-.641661.627393-.641689 1.681155 0 2.308593l3.511719 3.433594a.46440423.46440423 0 0 0 .0059.0059l.916015.859375a.46440423.46440423 0 0 0 .669922-.0332l.800781-.927735 8.183594-9.144531c.436846-.464993.442737-1.122793.228516-1.626953-.214222-.504161-.642829-.938924-1.230469-1.046875z" fill="#32d74b"/></svg>

<?xml version="1.0" encoding="UTF-8" standalone="no"?>
<svg
   xmlns:dc="http://purl.org/dc/elements/1.1/"
   xmlns:cc="http://creativecommons.org/ns#"
   xmlns:rdf="http://www.w3.org/1999/02/22-rdf-syntax-ns#"
   xmlns:svg="http://www.w3.org/2000/svg"
   xmlns="http://www.w3.org/2000/svg"
   xmlns:sodipodi="http://sodipodi.sourceforge.net/DTD/sodipodi-0.dtd"
   xmlns:inkscape="http://www.inkscape.org/namespaces/inkscape"
   viewBox="0 0 32 32"
   version="1.1"
   id="svg12"
   sodipodi:docname="spelling.svg"
   inkscape:version="0.92.3 (2405546, 2018-03-11)">
  <metadata
     id="metadata18">
    <rdf:RDF>
      <cc:Work
         rdf:about="">
        <dc:format>image/svg+xml</dc:format>
        <dc:type
           rdf:resource="http://purl.org/dc/dcmitype/StillImage" />
      </cc:Work>
    </rdf:RDF>
  </metadata>
  <defs
     id="defs16" />
  <sodipodi:namedview
     pagecolor="#ffffff"
     bordercolor="#666666"
     borderopacity="1"
     objecttolerance="10"
     gridtolerance="10"
     guidetolerance="10"
     inkscape:pageopacity="0"
     inkscape:pageshadow="2"
     inkscape:window-width="1366"
     inkscape:window-height="685"
     id="namedview14"
     showgrid="true"
     inkscape:zoom="20.85965"
     inkscape:cx="16.940023"
     inkscape:cy="23.300682"
     inkscape:window-x="0"
     inkscape:window-y="0"
     inkscape:window-maximized="1"
     inkscape:current-layer="svg12">
    <inkscape:grid
       type="xygrid"
       id="grid828" />
  </sodipodi:namedview>
  <g
     aria-label="Abc"
     style="font-style:normal;font-weight:normal;font-size:16.54347801px;line-height:1.25;font-family:sans-serif;letter-spacing:0px;word-spacing:0px;fill:#69696e;fill-opacity:1;stroke:none;stroke-width:0.41358694"
     id="text832">
    <path
       d="M 9.6888522,14.000335 H 5.1329334 L 4.1797447,16.738733 H 2.0552649 L 6.4980935,4.9773544 H 8.33177 L 12.782676,16.738733 H 10.650119 Z M 5.7064622,12.35245 H 9.1153234 L 7.4108928,7.4734163 Z"
       style="font-style:normal;font-variant:normal;font-weight:500;font-stretch:normal;font-family:Roboto;-inkscape-font-specification:'Roboto Medium';fill:#69696e;fill-opacity:1;stroke-width:0.41358694"
       id="path834" />
    <path
       d="m 21.603711,12.457462 q 0,2.035623 -0.912799,3.239226 -0.904722,1.203603 -2.496062,1.203603 -1.534796,0 -2.39105,-1.106669 l -0.09693,0.945111 H 13.929734 V 4.3311248 h 1.962923 v 4.5074515 q 0.848176,-1.0016559 2.286037,-1.0016559 1.599418,0 2.512218,1.1874469 0.912799,1.1874467 0.912799,3.3200047 z m -1.962923,-0.169635 q 0,-1.421705 -0.500827,-2.132558 -0.500828,-0.7108524 -1.454017,-0.7108524 -1.276304,0 -1.793287,1.1147464 v 3.60273 q 0.525061,1.138979 1.809443,1.138979 0.920877,0 1.421705,-0.686619 0.500828,-0.686619 0.516983,-2.076012 z"
       style="font-style:normal;font-variant:normal;font-weight:500;font-stretch:normal;font-family:Roboto;-inkscape-font-specification:'Roboto Medium';fill:#69696e;fill-opacity:1;stroke-width:0.41358694"
       id="path836" />
    <path
       d="m 26.830093,15.333184 q 0.735086,0 1.219758,-0.428127 0.484672,-0.428127 0.516984,-1.058201 h 1.849832 q -0.03231,0.815865 -0.508906,1.526717 -0.476594,0.702775 -1.292459,1.114746 -0.815865,0.411972 -1.760976,0.411972 -1.833676,0 -2.908033,-1.187447 -1.074357,-1.187447 -1.074357,-3.279615 v -0.201947 q 0,-1.995234 1.066279,-3.1907589 1.066279,-1.2036027 2.908033,-1.2036027 1.559029,0 2.536451,0.9127993 0.985501,0.9047215 1.033968,2.3829713 H 28.566835 Q 28.534523,10.38145 28.049851,9.8967773 27.573257,9.4121051 26.830093,9.4121051 q -0.953189,0 -1.470173,0.6946969 -0.516984,0.686619 -0.525061,2.092168 v 0.315037 q 0,1.421705 0.508905,2.12448 0.516984,0.694697 1.486329,0.694697 z"
       style="font-style:normal;font-variant:normal;font-weight:500;font-stretch:normal;font-family:Roboto;-inkscape-font-specification:'Roboto Medium';fill:#69696e;fill-opacity:1;stroke-width:0.41358694"
       id="path838" />
  </g>
  <path
     d="m30.091797 18.558594c-.164931-.0303-.34487-.03226-.525391.0039a.46440423.46440423 0 0 0 -.0039 0c-.359762.07602-.681249.269599-.916016.548828-.000589.000701-.0014.0013-.002.002l-7.01949 7.855428-2.287109-2.238281c-.642077-.627867-1.689903-.627751-2.332032 0-.641661.627393-.641689 1.681155 0 2.308593l3.511719 3.433594a.46440423.46440423 0 0 0 .0059.0059l.916015.859375a.46440423.46440423 0 0 0 .669922-.0332l.800781-.927735 8.183594-9.144531c.436846-.464993.442737-1.122793.228516-1.626953-.214222-.504161-.642829-.938924-1.230469-1.046875z"
     fill="#32d74b"
     id="path10" />
</svg>
